X: 37379
T: Sleeping Stones
R: waltz
M: 3/4
K: Adorian
|:"Am" A,2 E D2 E|CD B,"G"C B,G,|"Am" A,2 E D2 E|C2 ED EG|
"D" F2 GF ED|F2 GF GF|"C" E2 FE DC|"G" DC B,C B,G:|
|:"Am" C2 G F2 G|EF D"G"E DB,|"Am" C2 G F2 G|E2 GF GB|
"D" A2 Bc BA|B2 BA BA|"C" G2 AG FE|"G" FE DE DB,:|

